assets/Handbag/Flat/handbag_flat.svg

<svg width="32" height="32" viewBox="0 0 32 32" fill="none" xmlns="http://www.w3.org/2000/svg">
<path d="M25.656 10.36H6.35601C4.86601 10.36 3.61601 11.49 3.45601 12.97L2.53491 21.7365C2.53491 21.7365 3.75828 22.8 5.92601 22.8H26.096C28.2532 22.8 29.4888 21.7528 29.4888 21.7528L28.566 12.97C28.396 11.49 27.146 10.36 25.656 10.36Z" fill="#F3AD61"/>
<path d="M2.52612 21.75L2.01612 26.58C1.83612 28.3 3.18612 29.8 4.91612 29.8H27.0861C28.8161 29.8 30.1661 28.3 29.9861 26.58L29.4761 21.75" fill="#6D4534"/>
<path d="M24.906 12.78H24.756V10.79C24.756 5.95 20.816 2 15.966 2C11.116 2 7.18603 5.94 7.18603 10.79V12.78H7.02603C6.41603 12.78 5.92603 13.27 5.92603 13.88V15.69C5.92603 16.3 6.41603 16.79 7.02603 16.79H8.83603C9.44603 16.79 9.93603 16.3 9.93603 15.69V13.88C9.93603 13.27 9.44603 12.78 8.83603 12.78H8.68603V10.79C8.68603 6.77 11.956 3.5 15.976 3.5C19.996 3.5 23.266 6.77 23.266 10.79V12.78H23.106C22.496 12.78 22.006 13.27 22.006 13.88V15.69C22.006 16.3 22.496 16.79 23.106 16.79H24.916C25.526 16.79 26.016 16.3 26.016 15.69V13.88C26.006 13.27 25.516 12.78 24.906 12.78Z" fill="#6D4534"/>
</svg>

<svg xmlns="http://www.w3.org/2000/svg" width="32" height="32" fill="none"><path fill="#F3AD61" d="M25.656 10.36h-19.3c-1.49 0-2.74 1.13-2.9 2.61l-.921 8.766S3.758 22.8 5.926 22.8h20.17c2.157 0 3.393-1.047 3.393-1.047l-.923-8.783a2.94 2.94 0 0 0-2.91-2.61Z"/><path fill="#6D4534" d="m2.526 21.75-.51 4.83a2.917 2.917 0 0 0 2.9 3.22h22.17c1.73 0 3.08-1.5 2.9-3.22l-.51-4.83M24.906 12.78h-.15v-1.99c0-4.84-3.94-8.79-8.79-8.79s-8.78 3.94-8.78 8.79v1.99h-.16c-.61 0-1.1.49-1.1 1.1v1.81c0 .61.49 1.1 1.1 1.1h1.81c.61 0 1.1-.49 1.1-1.1v-1.81c0-.61-.49-1.1-1.1-1.1h-.15v-1.99c0-4.02 3.27-7.29 7.29-7.29s7.29 3.27 7.29 7.29v1.99h-.16c-.61 0-1.1.49-1.1 1.1v1.81c0 .61.49 1.1 1.1 1.1h1.81c.61 0 1.1-.49 1.1-1.1v-1.81c-.01-.61-.5-1.1-1.11-1.1Z"/></svg>
